X: 7046
T: Chips And Shavings
R: reel
M: 4/4
K: Dmajor
dBAF G2FE|DFAF GEEc|dAFA G2FE|DBAG FDD2:|
dfaf g2fe|dfaf geef|dfaf g2fe|dBAG FDD2|
dfaf g2fe|dfaf geef|afge fdec|dBAG FDD2||

